geofa_plugin/geofa_symboler/Friluftsliv, punkt/FORSAMLINGSHUS.svg

<svg xmlns="http://www.w3.org/2000/svg" width="5.5mm" height="5.5mm" viewBox="0 0 15.591 15.591">
  <rect width="15.591" height="15.591" rx="7.795" fill="#021e3a"/>
  <path d="M13.29,6.99,7.981,2.647a.3.3,0,0,0-.372,0L2.3,6.99a.172.172,0,0,0,.108.3H3.684V12.81a.2.2,0,0,0,.2.2H5.866a.2.2,0,0,0,.2-.2V9.527a.2.2,0,0,1,.2-.2H9.1a.2.2,0,0,1,.2.2V12.81a.2.2,0,0,0,.2.2h1.983a.2.2,0,0,0,.2-.2V7.3h1.5A.172.172,0,0,0,13.29,6.99ZM7.8,6.732a.7.7,0,1,1,.7-.7A.7.7,0,0,1,7.8,6.732Z" fill="#fff"/>
</svg>

<?xml version="1.0" encoding="UTF-8"?>
<svg xmlns="http://www.w3.org/2000/svg" viewBox="0 0 15.59 15.59">
  <defs>
    <style>
      .cls-1 {
        fill: #021e3a;
      }

      .cls-1, .cls-2 {
        stroke-width: 0px;
      }

      .cls-2 {
        fill: #fff;
      }
    </style>
  </defs>
  <g id="Cirkel">
    <rect class="cls-1" x="0" y="0" width="15.59" height="15.59" rx="7.8" ry="7.8"/>
  </g>
  <g id="ICONS">
    <path class="cls-2" d="M13.29,6.99L7.98,2.65c-.11-.09-.26-.09-.37,0L2.3,6.99c-.12.1-.05.3.11.3h1.27v5.52c0,.11.09.2.2.2h1.98c.11,0,.2-.09.2-.2v-3.28c0-.11.09-.2.2-.2h2.84c.11,0,.2.09.2.2v3.28c0,.11.09.2.2.2h1.98c.11,0,.2-.09.2-.2v-5.52h1.5c.16,0,.23-.2.11-.3ZM7.8,6.73c-.39,0-.7-.31-.7-.7s.31-.7.7-.7.7.31.7.7-.31.7-.7.7Z"/>
  </g>
</svg>
